assets/arrow-left-circle.svg

<svg xmlns="http://www.w3.org/2000/svg" fill="none" viewBox="0 0 28 28">
  <path fill="#2A2238" d="M3.46967 13.4697c-.29289.2929-.29289.7677 0 1.0606l4.77297 4.773c.29289.2929.76777.2929 1.06066 0s.29289-.7678 0-1.0607L5.06066 14 9.3033 9.75736c.29289-.29289.29289-.76777 0-1.06066s-.76777-.29289-1.06066 0l-4.77297 4.773ZM24 14.75c.4142 0 .75-.3358.75-.75s-.3358-.75-.75-.75v1.5Zm-20 0h20v-1.5H4v1.5Z"/>
  <circle cx="14" cy="14" r="13.25" stroke="#2A2238" stroke-width="1.5"/>
</svg>

<svg width="28" height="28" viewBox="0 0 28 28" fill="none" xmlns="http://www.w3.org/2000/svg">
<path d="M3.46967 13.4697C3.17678 13.7626 3.17678 14.2374 3.46967 14.5303L8.24264 19.3033C8.53553 19.5962 9.01041 19.5962 9.3033 19.3033C9.59619 19.0104 9.59619 18.5355 9.3033 18.2426L5.06066 14L9.3033 9.75736C9.59619 9.46447 9.59619 8.98959 9.3033 8.6967C9.01041 8.40381 8.53553 8.40381 8.24264 8.6967L3.46967 13.4697ZM24 14.75C24.4142 14.75 24.75 14.4142 24.75 14C24.75 13.5858 24.4142 13.25 24 13.25V14.75ZM4 14.75H24V13.25H4V14.75Z" fill="#2A2238"/>
<circle cx="14" cy="14" r="13.25" stroke="#2A2238" stroke-width="1.5"/>
</svg>
